lib/svgs/wall.svg

<svg xmlns="http://www.w3.org/2000/svg" viewBox="0 0 20 20">
    <path fill="#000" fill-rule="evenodd" d="M17.4,4.6 L14.787,4.6 L14.787,3.6 C14.787,3.269 14.519,3 14.187,3 L2.6,3 C2.269,3 2,3.269 2,3.6 L2,14.8 C2,16.014 2.99,17 4.206,17 L15.794,17 C17.01,17 18,16.011 18,14.794 L18,5.2 C18,4.869 17.732,4.6 17.4,4.6 L17.4,4.6 Z M3.2,14.8 L3.2,4.2 L13.587,4.2 L13.587,14.794 C13.587,15.159 13.684,15.498 13.842,15.801 L4.206,15.801 C3.652,15.801 3.2,15.352 3.2,14.8 L3.2,14.8 Z M16.8,14.794 C16.8,15.349 16.349,15.801 15.794,15.801 C15.238,15.801 14.787,15.349 14.787,14.794 L14.787,5.8 L16.8,5.8 L16.8,14.794 L16.8,14.794 Z M5.24222822,12.4000939 C4.89349607,12.4000939 4.61008535,12.6690939 4.61008535,13.0000939 C4.61008535,13.3320939 4.89349607,13.6000939 5.24222822,13.6000939 L9.87794258,13.6000939 C10.2277283,13.6000939 10.5100854,13.3320939 10.5100854,13.0000939 C10.5100854,12.6690939 10.2277283,12.4000939 9.87794258,12.4000939 L5.24222822,12.4000939 L5.24222822,12.4000939 Z M5.2107,10.4001122 L8.4107,10.4001122 C8.7427,10.4001122 9.0107,10.1311122 9.0107,9.80011221 C9.0107,9.46811221 8.7427,9.20011221 8.4107,9.20011221 L5.2107,9.20011221 C4.8787,9.20011221 4.6107,9.46811221 4.6107,9.80011221 C4.6107,10.1311122 4.8787,10.4001122 5.2107,10.4001122 L5.2107,10.4001122 Z M11.6106,6.0001 L5.2106,6.0001 C4.8796,6.0001 4.6106,6.2691 4.6106,6.6001 C4.6106,6.9321 4.8796,7.2001 5.2106,7.2001 L11.6106,7.2001 C11.9426,7.2001 12.2106,6.9321 12.2106,6.6001 C12.2106,6.2691 11.9426,6.0001 11.6106,6.0001 L11.6106,6.0001 Z"/>
</svg>

<svg xmlns="http://www.w3.org/2000/svg" viewBox="0 0 20 20">
    <path fill="#000" fill-rule="evenodd" d="M17.4 4.6h-2.613v-1a.6.6 0 0 0-.6-.6H2.6a.6.6 0 0 0-.6.6v11.2c0 1.214.99 2.2 2.206 2.2h11.588A2.208 2.208 0 0 0 18 14.794V5.2a.6.6 0 0 0-.6-.6M3.2 14.8V4.2h10.387v10.594c0 .365.097.704.255 1.007H4.206A1.005 1.005 0 0 1 3.2 14.8m13.6-.006a1.008 1.008 0 0 1-2.013 0V5.8H16.8v8.994M5.242 12.4a.617.617 0 0 0-.632.6c0 .332.283.6.632.6h4.636c.35 0 .632-.268.632-.6 0-.33-.282-.6-.632-.6H5.242m-.031-2h3.2a.6.6 0 1 0 0-1.2h-3.2a.6.6 0 1 0 0 1.2m6.4-4.4h-6.4a.6.6 0 0 0 0 1.2h6.4a.6.6 0 1 0 0-1.2"/>
</svg>
